X: 1
T: Sadi Moma [C]
O: Macedonia
M: 7/8
L: 1/8
K: C
"^Inst."\
|:y"F"F2G A2- AG | "F"c2F G2- GF | "C"(4FEDE C4 \
|  "C"C3 "G"D2 DE | "F"F3 "C"E2 G2 | "Gm"D3 D4 | "Dm"D3 D4 :|
"^Vocal"\
|: "C"[G2E2][FD] [E2C2] "G"[D2G,2] | "C"[E2C2][FC] ([EC][DB,]) [C2G,2] | "C"[C3C3] "G"[D2G,2] ([DG,][EC]) |\
 "F"[F3C3] "C"[E2C2] [G2C2] |1 "G"[D3G,3] [D4G,4] | "C"([G2C3]F [E4C4]) :|2 "Gm"[D3_B,3] [D4B,4] | "Dm"[D7A,7] |]

%%sep 1 1 500

